X:1
T:Title
%%score { ( 1 3 ) | ( 2 4 ) }
L:1/8
M:4/4
K:Eb
V:1 treble nm="Grand Piano"
V:3 treble 
V:2 bass 
V:4 bass 
V:1
 z4 z2[Q:1/4=106] E2 | G2 G2 GF z F | G6 B2 | B2 B2 cBAG | [DF]6 [DF]2 | [DF]2 [DF]2 [FA]2 [EG]2 | %6
 [DF]6 [FA]2 | G2 B2 =A2 c2 | [DB]6 [Dc]2 | [EB]2 [B,EG]2 [B,DG]2 [A,DF]2 | [G,E]6 [A,EF]2 | %11
 [B,EG]2 .[CEB]2 [B,DG]2 [A,DF]2 |[M:7/4] [G,E]6 z2 z2 z4 |[M:4/4] [CEA]8 | [B,EG]8 |] %15
V:2
 z4 z2 [E,G,]2 | z4 .B,2 .G,2 | [E,B,E]6 [E,G,E]2 | [E,G,E]2 [E,G,E]2 [E,E]-[E,G,E]CB, | %4
 [B,,B,]6 [B,,B,]2 | [B,,B,]2 [B,,B,]2 [D,B,]2 [E,B,]2 | [B,,B,]6 [D,B,]2 | %7
 [E,B,E]2 [E,G,E]2 [F,E]2 [F,=A,E]2 | [B,,B,]6 [B,,A,]2 | [E,G,]2 E,2 B,,2 B,,2 | C,6 C,2 | %11
 B,,2 z A B,,2 B,,2 |[M:7/4] E,6 z2 z2 z4 |[M:4/4] A,,8 | E,8 |] %15
V:3
 x8 | z4 z2 E2 | x8 | x8 | x8 | x8 | x8 | x8 | x8 | x8 | x8 | x8 |[M:7/4] x14 |[M:4/4] x8 | x8 |] %15
V:4
 x8 | [E,B,E]2 [E,B,E]2 [E,E]-[E,A,E]E,-[E,A,] | x8 | z4 .A,2 [E,E]2 | x8 | x8 | x8 | x8 | x8 | %9
 x8 | x8 | z2 A,,2 z4 |[M:7/4] x14 |[M:4/4] x8 | x8 |] %15

